icons/svg/transport/aerialway_gondola.svg

<?xml version="1.0" encoding="UTF-8" standalone="no"?>
<!-- Created with Inkscape (http://www.inkscape.org/) -->

<svg
   xmlns:dc="http://purl.org/dc/elements/1.1/"
   xmlns:cc="http://creativecommons.org/ns#"
   xmlns:rdf="http://www.w3.org/1999/02/22-rdf-syntax-ns#"
   xmlns:svg="http://www.w3.org/2000/svg"
   xmlns="http://www.w3.org/2000/svg"
   xmlns:sodipodi="http://sodipodi.sourceforge.net/DTD/sodipodi-0.dtd"
   xmlns:inkscape="http://www.inkscape.org/namespaces/inkscape"
   version="1.0"
   width="580"
   height="580"
   id="svg2"
   sodipodi:version="0.32"
   inkscape:version="0.91 r"
   sodipodi:docname="aerialway_gondola.svg"
   inkscape:output_extension="org.inkscape.output.svg.inkscape">
  <metadata
     id="metadata10">
    <rdf:RDF>
      <cc:Work
         rdf:about="">
        <dc:format>image/svg+xml</dc:format>
        <dc:type
           rdf:resource="http://purl.org/dc/dcmitype/StillImage" />
        <cc:license
           rdf:resource="http://web.resource.org/cc/PublicDomain" />
        <dc:language>en</dc:language>
        <dc:title />
      </cc:Work>
    </rdf:RDF>
  </metadata>
  <sodipodi:namedview
     inkscape:window-height="1004"
     inkscape:window-width="1920"
     inkscape:pageshadow="2"
     inkscape:pageopacity="0.0"
     guidetolerance="10.0"
     gridtolerance="10.0"
     objecttolerance="10.0"
     borderopacity="1.0"
     bordercolor="#666666"
     pagecolor="#ffffff"
     id="base"
     showgrid="false"
     inkscape:zoom="0.70710678"
     inkscape:cx="308.17022"
     inkscape:cy="304.66082"
     inkscape:window-x="1680"
     inkscape:window-y="0"
     inkscape:current-layer="svg2"
     inkscape:window-maximized="1">
    <inkscape:grid
       type="xygrid"
       id="grid3779" />
  </sodipodi:namedview>
  <defs
     id="defs4">
    <inkscape:perspective
       sodipodi:type="inkscape:persp3d"
       inkscape:vp_x="0 : 290 : 1"
       inkscape:vp_y="0 : 1000 : 0"
       inkscape:vp_z="580 : 290 : 1"
       inkscape:persp3d-origin="290 : 193.33333 : 1"
       id="perspective12" />
    <style
       type="text/css"
       id="style6">
   
    .fil0 {fill:#EF7900}
   
  </style>
    <inkscape:perspective
       id="perspective6807"
       inkscape:persp3d-origin="29.116032 : 19.410688 : 1"
       inkscape:vp_z="58.232063 : 29.116032 : 1"
       inkscape:vp_y="0 : 1000 : 0"
       inkscape:vp_x="0 : 29.116032 : 1"
       sodipodi:type="inkscape:persp3d" />
    <inkscape:perspective
       id="perspective6954"
       inkscape:persp3d-origin="290 : 193.33333 : 1"
       inkscape:vp_z="580 : 290 : 1"
       inkscape:vp_y="0 : 1000 : 0"
       inkscape:vp_x="0 : 290 : 1"
       sodipodi:type="inkscape:persp3d" />
    <marker
       viewBox="0 0 10 10"
       refY="5"
       refX="10"
       orient="auto"
       markerWidth="4"
       markerUnits="strokeWidth"
       markerHeight="3"
       id="ArrowStart">
      <path
         id="path2295"
         d="M 10 0 L 0 5 L 10 10 z" />
    </marker>
    <marker
       viewBox="0 0 10 10"
       refY="5"
       refX="0"
       orient="auto"
       markerWidth="4"
       markerUnits="strokeWidth"
       markerHeight="3"
       id="ArrowEnd">
      <path
         id="path2292"
         d="M 0 0 L 10 5 L 0 10 z" />
    </marker>
    <inkscape:perspective
       id="perspective7597"
       inkscape:persp3d-origin="178.5405 : 158.483 : 1"
       inkscape:vp_z="357.08099 : 237.7245 : 1"
       inkscape:vp_y="0 : 1000 : 0"
       inkscape:vp_x="0 : 237.7245 : 1"
       sodipodi:type="inkscape:persp3d" />
  </defs>
  <g
     id="g1327">
    <path
       d="M 66.275,1.768 C 24.94,1.768 1.704,23.139 1.704,66.804 L 1.704,516.927 C 1.704,557.771 22.598,579.156 63.896,579.156 L 515.92,579.156 C 557.227,579.156 578.149,558.84 578.149,516.927 L 578.149,66.804 C 578.149,24.203 557.227,1.768 514.627,1.768 C 514.624,1.768 66.133,1.625 66.275,1.768 z"
       style="fill:#111111;stroke:#eeeeee;stroke-width:3.40799999"
       id="path1329" />
  </g>
  <g
     id="g2319"
     transform="translate(879.29125,36.805119)">
    <path
       id="path2323"
       style="fill:#ffffff;stroke:none"
       d="" />
  </g>
  <g
     id="g2325"
     transform="translate(879.29125,36.805119)">
    <path
       id="path2329"
       style="fill:#ffffff;stroke:none"
       d="" />
  </g>
  <path
     inkscape:connector-curvature="0"
     style="fill:#ffffff;fill-opacity:1;stroke:none"
     d="m 250.6845,260.61842 -28.07428,0 c -34.28655,0 -50.61356,27.71554 -61.61356,62.3592 -11,34.64366 -10,92.15418 0,126.95323 10,34.79905 27.57444,63.28337 64.09796,62.60724 l 152.79188,0 c 38.61475,1.01829 59.27128,-33.0345 66.3335,-62.60724 9.75736,-40.85849 12.57664,-86.8082 0,-126.95323 -8.73576,-27.88482 -27.32622,-62.3592 -61.61348,-62.3592 l -32.04855,0 z m 75.0293,0 -49.93712,0 z m -106.05619,30.30985 166.13119,0 c 13.04142,0 28.31788,21.43819 33.34729,37.35349 8.32116,26.33185 10.05321,46.13788 4.5,72.45764 -2.17731,10.31949 -8.30587,23.35351 -21.34729,23.35351 l -182.63119,0 c -13.04138,0 -34.59844,1.16718 -39.09844,-18.85351 -4.5,-20.02069 0.5,-61.93694 7,-79.45764 6.5,-17.5207 19.05706,-34.85349 32.09844,-34.85349 z"
     id="rect4085"
     sodipodi:nodetypes="cczzccssccccccccsscczzc" />
  <rect
     style="fill:#ffffff;fill-opacity:1;fill-rule:evenodd;stroke:none"
     id="rect3480"
     width="462.52582"
     height="48.848812"
     x="-82.739746"
     y="214.30412"
     transform="matrix(0.88199495,-0.47125886,0.47125886,0.88199495,0,0)"
     ry="0" />
  <path
     style="fill:none;fill-rule:evenodd;stroke:#ffffff;stroke-width:25;stroke-linecap:round;stroke-linejoin:miter;stroke-miterlimit:4;stroke-dasharray:none;stroke-opacity:1"
     d="m 281.4285,234.93188 c 0,0 106.25707,10.14219 107.48023,-50.91168 1.22316,-61.05387 0,-107.48023 0,-107.48023"
     id="path4175"
     inkscape:connector-curvature="0"
     sodipodi:nodetypes="czc" />
</svg>

<svg width="580" height="580" viewBox="0 0 580 580" fill="none" xmlns="http://www.w3.org/2000/svg">
<g clip-path="url(#clip0)">
<path d="M66.2751 1.76766C24.9401 1.76766 1.7041 23.1387 1.7041 66.8037V516.927C1.7041 557.771 22.5981 579.156 63.8961 579.156H515.92C557.227 579.156 578.149 558.84 578.149 516.927V66.8037C578.149 24.2027 557.227 1.76766 514.627 1.76766C514.624 1.76766 66.1331 1.62466 66.2751 1.76766Z" fill="#111111" stroke="#EEEEEE" stroke-width="3.408"/>
<path d="M250.684 260.618H222.61C188.324 260.618 171.997 288.334 160.997 322.977C149.997 357.621 150.997 415.132 160.997 449.931C170.997 484.73 188.571 513.214 225.095 512.538H377.886C416.501 513.556 437.158 479.503 444.22 449.931C453.977 409.072 456.797 363.122 444.22 322.977C435.484 295.093 416.894 260.618 382.606 260.618H350.558H250.684ZM325.714 260.618H275.777H325.714ZM219.658 290.928H385.789C398.83 290.928 414.107 312.366 419.136 328.282C427.457 354.613 429.189 374.419 423.636 400.739C421.459 411.059 415.33 424.093 402.289 424.093H219.658C206.616 424.093 185.059 425.26 180.559 405.239C176.059 385.218 181.059 343.302 187.559 325.782C194.059 308.261 206.616 290.928 219.658 290.928V290.928Z" fill="white"/>
<path d="M435.962 10.0375L28.0166 228.007L51.037 271.091L458.982 53.1218L435.962 10.0375Z" fill="white"/>
<path d="M281.429 234.932C281.429 234.932 387.686 245.074 388.909 184.02C390.132 122.966 388.909 76.54 388.909 76.54" stroke="white" stroke-width="25" stroke-linecap="round"/>
</g>
<defs>
<clipPath id="clip0">
<path d="M0 0H580V580H0V0Z" fill="white"/>
</clipPath>
</defs>
</svg>
